src/assets/icons/pix.svg

<svg width="80" height="28" viewBox="0 0 80 28" fill="none" xmlns="http://www.w3.org/2000/svg">
<path id="Union" fill-rule="evenodd" clip-rule="evenodd" d="M52.9612 1.94403L53.8938 2.87679C54.1253 3.10819 54.5005 3.10819 54.7319 2.87679L55.6645 1.94403C55.896 1.71263 55.896 1.33739 55.6645 1.10599L54.7325 0.173815C54.5008 -0.0579384 54.1251 -0.0579384 53.8932 0.173815L52.9612 1.10599C52.7297 1.33739 52.7297 1.71263 52.9612 1.94403ZM49.5844 4.73438C49.5844 4.45823 49.8083 4.23438 50.0844 4.23438H52.141C53.6298 4.23438 54.8364 5.4412 54.8364 6.92988V18.925C54.8364 19.2012 54.6126 19.425 54.3364 19.425C54.0603 19.425 53.8364 19.2012 53.8364 18.925V6.92988C53.8364 5.99341 53.0774 5.23438 52.141 5.23438H50.0844C49.8083 5.23438 49.5844 5.01052 49.5844 4.73438ZM38.6877 5.23828C36.0094 5.23848 33.8383 7.40968 33.8383 10.0881V26.1458C33.8383 26.4219 33.6145 26.6458 33.3383 26.6458C33.0622 26.6458 32.8383 26.4219 32.8383 26.1458V10.0881C32.8383 6.85728 35.4573 4.23828 38.688 4.23828H38.6888L43.43 4.24543H43.4302C46.6519 4.25182 49.2604 6.8654 49.2604 10.0872V13.5052C49.2604 16.736 46.6412 19.355 43.4106 19.355H36.711C36.4349 19.355 36.211 19.1311 36.211 18.855C36.211 18.5788 36.4349 18.355 36.711 18.355H43.4106C46.089 18.355 48.2604 16.1837 48.2604 13.5052V10.0872C48.2604 7.41699 46.0986 5.25085 43.4284 5.24542L43.4282 5.24542L38.688 5.23828H38.6877ZM57.7836 4.72461C57.7836 4.44847 58.0075 4.22461 58.2836 4.22461H60.3232C61.5051 4.22461 62.6386 4.69414 63.4742 5.52971L68.2448 10.3003C68.6674 10.723 69.3527 10.7231 69.7755 10.3003L74.5286 5.54717C75.3643 4.71162 76.4976 4.24208 77.6795 4.24208H79.3378C79.6139 4.24208 79.8378 4.46593 79.8378 4.74208C79.8378 5.01822 79.6139 5.24208 79.3378 5.24208H77.6795C76.7629 5.24208 75.8839 5.60623 75.2357 6.25431L70.4826 11.0074C69.6693 11.8207 68.3508 11.8207 67.5376 11.0074L62.767 6.23682C62.119 5.58878 61.2399 5.22461 60.3232 5.22461H58.2836C58.0075 5.22461 57.7836 5.00075 57.7836 4.72461ZM68.2448 13.2448C68.6674 12.8221 69.3527 12.822 69.7755 13.2448L74.5286 17.9979C75.3643 18.8335 76.4976 19.303 77.6795 19.303H79.3378C79.6139 19.303 79.8378 19.0792 79.8378 18.803C79.8378 18.5269 79.6139 18.303 79.3378 18.303H77.6795C76.7629 18.303 75.8839 17.9389 75.2357 17.2908L70.4826 12.5377C69.6693 11.7244 68.3508 11.7244 67.5376 12.5377L62.767 17.3083C62.119 17.9563 61.2399 18.3205 60.3232 18.3205H58.2836C58.0075 18.3205 57.7836 18.5443 57.7836 18.8205C57.7836 19.0966 58.0075 19.3205 58.2836 19.3205H60.3232C61.5051 19.3205 62.6386 18.851 63.4742 18.0154L68.2448 13.2448ZM21.1767 21.8688C20.1531 21.8688 19.1903 21.4702 18.4664 20.7467L14.5531 16.8333C14.2783 16.5578 13.7994 16.5586 13.5248 16.8333L9.59713 20.761C8.87326 21.4845 7.91048 21.8831 6.88687 21.8831H6.11566L11.0721 26.8393C12.6199 28.3872 15.1296 28.3872 16.6776 26.8393L21.648 21.8688H21.1767ZM9.59886 9.14934C8.87499 8.42582 7.91221 8.02726 6.8886 8.02726L6.11761 8.02728L11.0738 3.07112C12.6216 1.52317 15.1313 1.52317 16.6794 3.07112L21.6498 8.04158H21.1784C20.1548 8.04158 19.192 8.44014 18.4681 9.16366L14.5548 13.0773C14.2712 13.3617 13.8094 13.3606 13.5265 13.0777L9.59886 9.14934ZM25.7606 12.1523L22.7569 9.14868C22.6908 9.17516 22.6192 9.1917 22.5436 9.1917H21.1779C20.4718 9.1917 19.7807 9.47808 19.2818 9.97734L15.3685 13.8907C15.0023 14.2569 14.5211 14.4401 14.0404 14.4401C13.5592 14.4401 13.0783 14.2569 12.7122 13.891L8.78421 9.96304C8.2853 9.46366 7.59414 9.1774 6.88809 9.1774H5.20884C5.13722 9.1774 5.07029 9.16052 5.0071 9.13672L1.99148 12.1523C0.443515 13.7003 0.443515 16.2098 1.99148 17.7578L5.00698 20.7733C5.07028 20.7495 5.13722 20.7326 5.20884 20.7326H6.88809C7.59414 20.7326 8.2853 20.4464 8.78421 19.9471L12.7119 16.0195C13.4218 15.3101 14.6593 15.3099 15.3685 16.0198L19.2818 19.9328C19.7807 20.432 20.4718 20.7184 21.1779 20.7184H22.5436C22.6192 20.7184 22.6908 20.7349 22.7569 20.7614L25.7606 17.7578C27.3084 16.2098 27.3084 13.7003 25.7606 12.1523ZM36.6796 24.8923C36.9348 24.8335 37.1928 24.7801 37.4145 24.7801C37.7846 24.7801 37.9752 24.9624 37.9752 25.3687C37.9752 25.8009 37.7425 25.9664 37.2518 25.9664C37.0583 25.9664 36.8564 25.9354 36.6796 25.8708V24.8923ZM36.5141 24.6622V26.5973H36.6796V26.028C36.8788 26.0867 37.0694 26.1177 37.2686 26.1177C37.4621 26.1177 37.678 26.0812 37.8378 25.9914C38.0677 25.8598 38.152 25.6216 38.152 25.3687C38.152 25.1277 38.0988 24.9064 37.9303 24.7688C37.7846 24.6508 37.6108 24.623 37.4283 24.623C37.204 24.623 36.8899 24.6931 36.6628 24.7465L36.6488 24.6622H36.5141ZM39.3809 24.7744C38.8901 24.7744 38.6713 24.9288 38.6713 25.3606C38.6713 25.7784 38.8873 25.9664 39.3809 25.9664C39.8688 25.9664 40.0876 25.8149 40.0876 25.383C40.0876 24.9652 39.8717 24.7744 39.3809 24.7744ZM40.0118 25.9664C39.8491 26.084 39.6305 26.1178 39.3809 26.1178C39.1257 26.1178 38.9068 26.0813 38.7471 25.9664C38.5676 25.8403 38.4946 25.6326 38.4946 25.372C38.4946 25.1138 38.5676 24.9037 38.7471 24.7744C38.9068 24.6596 39.1257 24.623 39.3809 24.623C39.6332 24.623 39.8491 24.6596 40.0118 24.7744C40.1942 24.9037 40.2642 25.1138 40.2642 25.3688C40.2642 25.6299 40.1913 25.8403 40.0118 25.9664ZM41.7918 24.9036L42.3387 26.0784H42.4873L43.0705 24.6621H42.894L42.4201 25.8511H42.4088L41.8675 24.6621H41.716L41.189 25.8511H41.1777L40.6925 24.6621H40.5102L41.0935 26.0784H41.2422L41.7804 24.9036H41.7918ZM44.1271 24.7716C43.6729 24.7716 43.5186 24.9734 43.4904 25.2653H44.7638C44.7498 24.9428 44.5842 24.7716 44.1271 24.7716ZM44.1216 26.1177C43.8494 26.1177 43.6729 26.0785 43.5326 25.9606C43.3671 25.8176 43.311 25.6102 43.311 25.3719C43.311 25.1447 43.3868 24.9036 43.5747 24.7661C43.7317 24.6568 43.9252 24.623 44.1271 24.623C44.3095 24.623 44.5198 24.6426 44.6935 24.7606C44.8983 24.8978 44.9377 25.1392 44.9377 25.4138H43.4849C43.4904 25.7054 43.5859 25.9636 44.1354 25.9636C44.3962 25.9636 44.6399 25.9215 44.8669 25.8823L44.867 25.8822L44.8675 25.8822V26.0307C44.6319 26.073 44.371 26.1177 44.1216 26.1177ZM45.4125 24.6622V26.0785H45.5782V24.8923C45.8894 24.8108 46.024 24.7801 46.2454 24.7801H46.2848V24.623H46.2651C46.0397 24.623 45.9046 24.658 45.6826 24.7154C45.645 24.7251 45.6048 24.7355 45.5613 24.7465L45.5471 24.6622H45.4125ZM47.2482 24.7716C46.7939 24.7716 46.6397 24.9734 46.6116 25.2653H47.8849C47.8709 24.9428 47.7053 24.7716 47.2482 24.7716ZM47.2427 26.1177C46.9705 26.1177 46.7939 26.0785 46.6537 25.9606C46.4881 25.8176 46.4321 25.6102 46.4321 25.3719C46.4321 25.1447 46.5079 24.9036 46.6958 24.7661C46.8528 24.6568 47.0463 24.623 47.2482 24.623C47.4306 24.623 47.6409 24.6426 47.8146 24.7606C48.0194 24.8978 48.0588 25.1392 48.0588 25.4138H46.606C46.6116 25.7054 46.707 25.9636 47.2565 25.9636C47.517 25.9636 47.7607 25.9215 47.9878 25.8823L47.9878 25.8823L47.9886 25.8822V26.0307C47.753 26.073 47.4921 26.1177 47.2427 26.1177ZM49.2972 24.7738C49.4907 24.7738 49.6926 24.8047 49.8693 24.8693V25.8506C49.6141 25.9066 49.356 25.96 49.1344 25.96C48.7643 25.96 48.5736 25.7805 48.5736 25.3713C48.5736 24.9395 48.8065 24.7738 49.2972 24.7738ZM49.8861 25.9936L49.9002 26.0779H50.0348V24.0645H49.8693V24.7122C49.6702 24.6562 49.4795 24.6224 49.2831 24.6224C49.0868 24.6224 48.8708 24.6589 48.711 24.7514C48.4811 24.8803 48.3969 25.1189 48.3969 25.3713C48.3969 25.6123 48.4502 25.8338 48.6185 25.9714C48.7643 26.092 48.9384 26.1172 49.1204 26.1172C49.3448 26.1172 49.659 26.047 49.8861 25.9936ZM52.4614 24.7796C52.2397 24.7796 51.9817 24.833 51.7265 24.8918V25.8676C51.9061 25.9349 52.1051 25.966 52.2987 25.966C52.7894 25.966 53.0221 25.8004 53.0221 25.3682C53.0221 24.9619 52.8315 24.7796 52.4614 24.7796ZM52.8848 25.9909C52.7249 26.0807 52.509 26.1172 52.3154 26.1172C52.1051 26.1172 51.8948 26.0807 51.6817 26.0106L51.6733 26.078H51.561V24.0645H51.7265V24.7401C51.9537 24.69 52.2593 24.6226 52.4752 24.6226C52.6577 24.6226 52.8315 24.6503 52.9772 24.7683C53.1456 24.9059 53.1989 25.1272 53.1989 25.3682C53.1989 25.6211 53.1146 25.8593 52.8848 25.9909ZM53.4187 26.4683V26.6224C53.489 26.6309 53.5589 26.6364 53.6235 26.6364C53.9124 26.6364 54.0694 26.5412 54.2153 26.2524L55.0117 24.6621H54.8238L54.2209 25.8848H54.2098L53.5759 24.6621H53.3852L54.1255 26.0784L54.0721 26.1905C53.9571 26.4233 53.8339 26.4824 53.6291 26.4824C53.5759 26.4824 53.5 26.4765 53.4187 26.4683ZM57.2936 25.2695H56.744V25.7661H57.2963C57.6749 25.7661 57.818 25.7238 57.818 25.5164C57.818 25.2946 57.6218 25.2695 57.2936 25.2695ZM57.1928 24.4647H56.744V24.9693H57.1955C57.5685 24.9693 57.717 24.9247 57.717 24.7142C57.717 24.4901 57.5292 24.4647 57.1928 24.4647ZM58.0452 25.9428C57.8431 26.0717 57.5992 26.0772 57.1534 26.0772H56.3149V24.1562H57.1338C57.518 24.1562 57.7535 24.1618 57.9498 24.2797C58.0901 24.3639 58.1461 24.4928 58.1461 24.661C58.1461 24.8628 58.0621 24.9976 57.8431 25.0874V25.0984C58.0901 25.1548 58.2499 25.2809 58.2499 25.5529C58.2499 25.7379 58.1826 25.8585 58.0452 25.9428ZM59.4144 25.4617C59.591 25.4617 59.7591 25.4699 59.9248 25.4841V25.7587C59.7367 25.801 59.5152 25.843 59.3301 25.843C59.1086 25.843 59.0244 25.7756 59.0244 25.6522C59.0244 25.5205 59.1255 25.4617 59.4144 25.4617ZM59.9975 25.9944L60.0088 26.0785L60.3201 26.0785V25.2399C60.3201 25.0298 60.2891 24.8699 60.1266 24.7548C59.9696 24.6427 59.7142 24.623 59.4676 24.623C59.2825 24.623 59.058 24.6344 58.8589 24.651V24.937C59.0384 24.9201 59.2263 24.9119 59.3806 24.9119C59.7788 24.9119 59.9247 24.9848 59.9247 25.2063V25.2317C59.7591 25.2203 59.5601 25.2121 59.4115 25.2121C59.2291 25.2121 59.03 25.2176 58.8813 25.2877C58.7132 25.3633 58.643 25.5119 58.643 25.6719C58.643 25.8149 58.6936 25.9383 58.8 26.0139C58.9151 26.0981 59.0776 26.1178 59.2291 26.1178C59.476 26.1178 59.7563 26.0534 59.9975 25.9944ZM62.171 26.0785V25.2959C62.171 25.0381 62.0393 24.9455 61.8036 24.9455C61.6299 24.9455 61.4111 24.9903 61.2259 25.0353V26.0785H60.8305V24.6622H61.153L61.1671 24.752C61.4165 24.6876 61.6943 24.623 61.9243 24.623C62.0981 24.623 62.2748 24.6481 62.4094 24.7689C62.5215 24.8699 62.5637 25.0099 62.5637 25.212V26.0785H62.171ZM63.1525 25.9691C63.2982 26.0926 63.4975 26.1177 63.6798 26.1177C63.9069 26.1177 64.148 26.073 64.3697 26.0279V25.7363C64.165 25.7756 63.9545 25.8092 63.775 25.8092C63.4666 25.8092 63.3348 25.6776 63.3348 25.3719C63.3348 25.0466 63.5114 24.9286 63.8873 24.9286C64.0246 24.9286 64.1956 24.94 64.3387 24.9537V24.6508C64.1622 24.6343 64.0023 24.623 63.8396 24.623C63.6124 24.623 63.3938 24.6481 63.217 24.7633C63.0011 24.9005 62.9282 25.1446 62.9282 25.3687C62.9282 25.6074 62.9787 25.8288 63.1525 25.9691ZM65.5383 24.9201C65.1625 24.9201 64.9969 25.038 64.9969 25.3605C64.9969 25.6831 65.1597 25.8206 65.5383 25.8206C65.9112 25.8206 66.0738 25.7054 66.0738 25.3829C66.0738 25.0604 65.9141 24.9201 65.5383 24.9201ZM66.2169 25.9691C66.043 26.0867 65.8159 26.1177 65.5383 26.1177C65.255 26.1177 65.0279 26.084 64.8568 25.9691C64.6605 25.8402 64.5903 25.6271 64.5903 25.3719C64.5903 25.1164 64.6605 24.9005 64.8568 24.7716C65.0279 24.6567 65.255 24.623 65.5383 24.623C65.8188 24.623 66.043 24.6567 66.2169 24.7716C66.4132 24.9005 66.4805 25.1164 66.4805 25.3688C66.4805 25.6243 66.4104 25.8402 66.2169 25.9691ZM68.0719 25.9175C68.2656 26.0774 68.5236 26.1166 68.7617 26.1166C69.0786 26.1166 69.39 26.055 69.6873 25.9958V25.6538C69.39 25.7157 69.0955 25.769 68.832 25.769C68.428 25.769 68.2122 25.5672 68.2122 25.1152C68.2122 24.6725 68.4449 24.4648 68.9919 24.4648C69.1882 24.4648 69.4405 24.4788 69.6453 24.4957V24.1508C69.4069 24.1312 69.1882 24.1172 68.9749 24.1172C68.6832 24.1172 68.3944 24.1481 68.1617 24.2995C67.8616 24.4957 67.7719 24.8323 67.7719 25.1152C67.7719 25.4323 67.842 25.7267 68.0719 25.9175ZM70.8497 24.8754C70.5214 24.8754 70.3952 24.9934 70.37 25.2093H71.3236C71.3122 24.9793 71.1777 24.8754 70.8497 24.8754ZM70.7906 26.1178C70.5579 26.1178 70.3476 26.0899 70.1905 25.9606C70.0223 25.8206 69.9633 25.6102 69.9633 25.3688C69.9633 25.1529 70.0335 24.9119 70.2299 24.7716C70.4036 24.6483 70.6253 24.623 70.8497 24.623C71.0515 24.623 71.29 24.6454 71.4637 24.7661C71.691 24.926 71.7106 25.1728 71.7132 25.4644H70.3673C70.3756 25.6804 70.4906 25.8206 70.8888 25.8206C71.1356 25.8206 71.4104 25.7842 71.6433 25.7477V26.0253C71.3712 26.0703 71.0739 26.1178 70.7906 26.1178ZM73.4757 25.2959V26.0785H73.8684V25.212C73.8684 25.0099 73.8262 24.8699 73.7141 24.7689C73.5795 24.6481 73.4027 24.623 73.229 24.623C72.999 24.623 72.7212 24.6876 72.4717 24.752L72.4577 24.6622H72.1352V26.0785H72.5306V25.0353C72.7158 24.9903 72.9344 24.9455 73.1083 24.9455C73.344 24.9455 73.4757 25.0381 73.4757 25.2959ZM74.9928 26.117C74.8022 26.117 74.6282 26.0637 74.5329 25.9152C74.4628 25.8141 74.429 25.677 74.429 25.4861V24.9559H74.143V24.6616H74.429L74.4712 24.2324H74.8217V24.6616H75.3798V24.9559H74.8217V25.4104C74.8217 25.5198 74.8301 25.6123 74.8609 25.6797C74.903 25.775 74.9955 25.8113 75.1189 25.8113C75.2114 25.8113 75.3237 25.7973 75.4021 25.7835V26.0665C75.2732 26.092 75.1244 26.117 74.9928 26.117ZM75.7641 24.6622V26.0785L76.1595 26.0785V25.0326C76.3755 24.982 76.5213 24.9597 76.7148 24.9597C76.7541 24.9597 76.8073 24.9597 76.8522 24.9624V24.6257C76.8427 24.6246 76.8342 24.6239 76.8267 24.6236C76.8166 24.623 76.8083 24.623 76.8019 24.623C76.5617 24.623 76.3721 24.6761 76.1218 24.7461L76.1008 24.752L76.0867 24.6622H75.7641ZM78.29 25.4841C78.1245 25.4699 77.9562 25.4617 77.7796 25.4617C77.4907 25.4617 77.3896 25.5205 77.3896 25.6522C77.3896 25.7756 77.4739 25.843 77.6953 25.843C77.8805 25.843 78.1019 25.801 78.29 25.7587V25.4841ZM78.374 26.0785L78.3629 25.9944C78.1217 26.0534 77.8413 26.1178 77.5944 26.1178C77.4429 26.1178 77.2803 26.0981 77.1652 26.0139C77.0589 25.9383 77.0082 25.8149 77.0082 25.6719C77.0082 25.5119 77.0785 25.3633 77.2467 25.2877C77.3953 25.2176 77.5944 25.2121 77.7768 25.2121C77.9254 25.2121 78.1245 25.2203 78.29 25.2317V25.2063C78.29 24.9848 78.144 24.9119 77.7458 24.9119C77.5917 24.9119 77.4036 24.9201 77.2242 24.937V24.651C77.4232 24.6344 77.6477 24.623 77.8329 24.623C78.0796 24.623 78.3349 24.6427 78.4919 24.7548C78.6544 24.8699 78.6854 25.0298 78.6854 25.2399V26.0785L78.374 26.0785ZM79.5911 24.0645H79.1957V26.0779H79.5911V24.0645Z" fill="#819EB0" fill-opacity="0.8"/>
</svg>

<svg width="80" height="28" fill="none" xmlns="http://www.w3.org/2000/svg"><path fill-rule="evenodd" clip-rule="evenodd" d="m52.961 1.944.933.933a.593.593 0 0 0 .838 0l.932-.933a.592.592 0 0 0 0-.838l-.931-.932a.593.593 0 0 0-.84 0l-.932.932a.592.592 0 0 0 0 .838zm-3.377 2.79a.5.5 0 0 1 .5-.5h2.057a2.695 2.695 0 0 1 2.695 2.696v11.995a.5.5 0 1 1-1 0V6.93c0-.937-.759-1.696-1.695-1.696h-2.057a.5.5 0 0 1-.5-.5zm-10.896.504a4.85 4.85 0 0 0-4.85 4.85v16.058a.5.5 0 1 1-1 0V10.088a5.85 5.85 0 0 1 5.85-5.85l4.742.007a5.842 5.842 0 0 1 5.83 5.842v3.418a5.85 5.85 0 0 1-5.85 5.85h-6.699a.5.5 0 0 1 0-1h6.7a4.85 4.85 0 0 0 4.85-4.85v-3.418a4.842 4.842 0 0 0-4.833-4.842l-4.74-.007zm19.096-.513a.5.5 0 0 1 .5-.5h2.04c1.181 0 2.315.47 3.15 1.305l4.77 4.77a1.082 1.082 0 0 0 1.531 0l4.754-4.753a4.456 4.456 0 0 1 3.15-1.305h1.659a.5.5 0 0 1 0 1H77.68c-.917 0-1.796.364-2.444 1.012l-4.753 4.753a2.082 2.082 0 0 1-2.945 0l-4.771-4.77a3.456 3.456 0 0 0-2.444-1.012h-2.04a.5.5 0 0 1-.5-.5zm10.46 8.52a1.082 1.082 0 0 1 1.531 0l4.754 4.753a4.456 4.456 0 0 0 3.15 1.305h1.659a.5.5 0 1 0 0-1H77.68a3.456 3.456 0 0 1-2.444-1.012l-4.753-4.753a2.082 2.082 0 0 0-2.945 0l-4.771 4.77a3.456 3.456 0 0 1-2.444 1.012h-2.04a.5.5 0 1 0 0 1h2.04a4.453 4.453 0 0 0 3.151-1.305l4.77-4.77zm-47.067 8.624a3.81 3.81 0 0 1-2.71-1.122l-3.914-3.914a.744.744 0 0 0-1.028 0l-3.928 3.928a3.81 3.81 0 0 1-2.71 1.122h-.771l4.956 4.956a3.964 3.964 0 0 0 5.606 0l4.97-4.97h-.471zM9.599 9.149a3.81 3.81 0 0 0-2.71-1.122h-.771l4.956-4.956a3.964 3.964 0 0 1 5.605 0l4.97 4.97h-.47a3.81 3.81 0 0 0-2.71 1.123l-3.914 3.913a.728.728 0 0 1-1.028 0L9.599 9.15zm16.162 3.003L22.757 9.15a.572.572 0 0 1-.213.043h-1.366a2.7 2.7 0 0 0-1.896.785l-3.914 3.914a1.875 1.875 0 0 1-2.656 0L8.784 9.963a2.699 2.699 0 0 0-1.896-.786h-1.68a.57.57 0 0 1-.2-.04L1.99 12.152a3.964 3.964 0 0 0 0 5.606l3.016 3.015a.57.57 0 0 1 .202-.04h1.68a2.7 2.7 0 0 0 1.895-.786l3.928-3.927c.71-.71 1.947-.71 2.656 0l3.914 3.913a2.7 2.7 0 0 0 1.896.785h1.366c.075 0 .147.017.213.043l3.004-3.003a3.964 3.964 0 0 0 0-5.606zm10.919 12.74c.255-.058.513-.112.734-.112.37 0 .561.182.561.589 0 .432-.233.597-.723.597a1.7 1.7 0 0 1-.572-.095v-.979zm-.166-.23v1.935h.166v-.569c.199.059.39.09.589.09.193 0 .409-.037.569-.127.23-.131.314-.37.314-.622 0-.241-.053-.463-.222-.6-.145-.118-.32-.146-.502-.146-.224 0-.538.07-.765.123l-.014-.084h-.135zm2.867.112c-.49 0-.71.155-.71.587 0 .417.216.605.71.605.488 0 .707-.151.707-.583 0-.418-.216-.609-.707-.609zm.63 1.192c-.162.118-.38.152-.63.152-.255 0-.474-.037-.634-.152-.18-.126-.252-.333-.252-.594 0-.258.073-.468.252-.598.16-.114.379-.151.634-.151.252 0 .468.037.63.151.183.13.253.34.253.595 0 .26-.073.471-.252.597zm1.78-1.062.548 1.174h.148l.584-1.416h-.177l-.474 1.19h-.011l-.541-1.19h-.152l-.527 1.19h-.011l-.485-1.19h-.183l.584 1.416h.148l.538-1.174h.012zm2.336-.132c-.454 0-.608.201-.637.493h1.274c-.014-.322-.18-.493-.637-.493zm-.005 1.346c-.273 0-.45-.04-.59-.157-.165-.143-.221-.35-.221-.59 0-.226.076-.467.264-.605.157-.11.35-.143.552-.143.182 0 .393.02.566.138.205.137.245.378.245.653h-1.453c.005.291.1.55.65.55.261 0 .505-.042.732-.082v.149a4.318 4.318 0 0 1-.745.087zm1.29-1.456v1.416h.166v-1.186c.311-.081.446-.112.667-.112h.04v-.157h-.02c-.225 0-.36.035-.582.092l-.122.032-.014-.085h-.134zm1.836.11c-.454 0-.608.201-.636.493h1.273c-.014-.322-.18-.493-.637-.493zm-.005 1.346c-.273 0-.45-.04-.59-.157-.165-.143-.22-.35-.22-.59 0-.226.075-.467.263-.605.157-.11.35-.143.552-.143.183 0 .393.02.567.138.204.137.244.378.244.653h-1.453c.006.291.101.55.65.55.261 0 .505-.042.732-.082v.149a4.318 4.318 0 0 1-.745.087zm2.054-1.344c.194 0 .396.03.572.095v.982c-.255.056-.513.109-.735.109-.37 0-.56-.18-.56-.589 0-.431.233-.597.723-.597zm.59 1.22.013.084h.135v-2.014h-.166v.648a2.144 2.144 0 0 0-.586-.09 1.18 1.18 0 0 0-.572.13c-.23.128-.314.367-.314.62 0 .24.053.462.221.6.146.12.32.145.502.145.225 0 .539-.07.766-.123zm2.574-1.214c-.221 0-.48.053-.734.112v.976c.18.067.378.098.572.098.49 0 .723-.166.723-.598 0-.406-.19-.588-.56-.588zm.424 1.21c-.16.09-.376.127-.57.127-.21 0-.42-.036-.633-.106l-.009.067h-.112v-2.014h.166v.676c.227-.05.532-.117.748-.117.183 0 .356.027.502.145.169.138.222.36.222.6 0 .253-.084.491-.314.623zm.534.478v.154c.07.009.14.014.205.014.288 0 .445-.095.591-.384l.797-1.59h-.188l-.603 1.223h-.011l-.634-1.223h-.19l.74 1.416-.054.113c-.115.232-.238.291-.443.291-.053 0-.129-.005-.21-.014zm3.875-1.198h-.55v.496h.552c.379 0 .522-.042.522-.25 0-.221-.196-.246-.524-.246zm-.101-.805h-.449v.504h.452c.373 0 .521-.044.521-.255 0-.224-.188-.25-.524-.25zm.852 1.478c-.202.129-.446.134-.892.134h-.838v-1.92h.819c.384 0 .62.005.816.123.14.084.196.213.196.381 0 .202-.084.337-.303.426v.011c.247.057.407.183.407.455 0 .185-.067.305-.205.39zm1.37-.481c.176 0 .344.008.51.022v.275c-.188.042-.41.084-.595.084-.221 0-.306-.067-.306-.19 0-.133.102-.191.39-.191zm.583.532.01.084h.312v-.838c0-.21-.03-.37-.193-.485-.157-.112-.413-.132-.66-.132a7.58 7.58 0 0 0-.608.028v.286c.18-.017.367-.025.522-.025.398 0 .544.073.544.294v.026a8.18 8.18 0 0 0-.514-.02c-.182 0-.381.006-.53.076a.399.399 0 0 0-.238.384c0 .143.05.266.157.342.115.084.278.104.43.104.246 0 .526-.065.768-.124zm2.173.084v-.782c0-.258-.132-.35-.367-.35-.174 0-.393.044-.578.09v1.042h-.395v-1.416h.322l.014.09c.25-.064.527-.129.757-.129.174 0 .35.025.485.146.113.1.155.24.155.443v.866h-.393zm.982-.109c.145.124.345.149.527.149.227 0 .468-.045.69-.09v-.292a3.28 3.28 0 0 1-.595.073c-.308 0-.44-.131-.44-.437 0-.325.176-.443.552-.443.138 0 .309.011.452.025v-.303a5.303 5.303 0 0 0-.5-.028c-.227 0-.445.025-.622.14-.216.137-.289.382-.289.606 0 .238.05.46.225.6zm2.385-1.049c-.376 0-.541.118-.541.44 0 .323.163.46.541.46.373 0 .536-.115.536-.437 0-.323-.16-.463-.536-.463zm.679 1.05c-.174.117-.401.148-.679.148-.283 0-.51-.034-.681-.149-.197-.129-.267-.342-.267-.597 0-.256.07-.471.267-.6.17-.115.398-.149.681-.149.28 0 .505.034.679.149.196.129.264.344.264.597 0 .255-.07.471-.264.6zm1.855-.052c.194.16.452.199.69.199.317 0 .628-.062.925-.121v-.342c-.297.062-.591.115-.855.115-.404 0-.62-.202-.62-.654 0-.442.233-.65.78-.65.196 0 .448.014.653.03v-.344a8.195 8.195 0 0 0-.67-.034c-.292 0-.58.031-.813.182-.3.197-.39.533-.39.816 0 .317.07.612.3.803zm2.778-1.043c-.329 0-.455.118-.48.334h.954c-.012-.23-.146-.334-.474-.334zm-.06 1.243c-.232 0-.442-.028-.6-.157-.168-.14-.227-.35-.227-.592 0-.216.07-.457.267-.597.174-.124.395-.149.62-.149.202 0 .44.022.614.143.227.16.247.407.25.698h-1.347c.009.216.124.357.522.357.247 0 .521-.037.754-.073v.277c-.272.045-.57.093-.852.093zm2.686-.822v.782h.392v-.866c0-.202-.042-.342-.154-.443-.135-.12-.311-.146-.485-.146-.23 0-.508.065-.757.129l-.014-.09h-.323v1.416h.396v-1.043c.185-.045.403-.09.577-.09.236 0 .368.093.368.35zm1.517.821c-.19 0-.365-.053-.46-.202-.07-.1-.104-.238-.104-.429v-.53h-.286v-.294h.286l.042-.43h.35v.43h.559v.294h-.558v.454c0 .11.008.202.039.27.042.095.135.131.258.131.092 0 .205-.014.283-.027v.283c-.129.025-.278.05-.41.05zm.771-1.455v1.416h.395v-1.045a2.203 2.203 0 0 1 .693-.071v-.336a.344.344 0 0 0-.025-.002l-.025-.001c-.24 0-.43.053-.68.123l-.021.006-.014-.09h-.323zm2.526.822a5.93 5.93 0 0 0-.51-.022c-.29 0-.39.058-.39.19 0 .124.084.191.305.191.186 0 .407-.042.595-.084v-.275zm.084.594-.011-.084c-.241.06-.522.124-.769.124-.151 0-.314-.02-.429-.104a.404.404 0 0 1-.157-.342c0-.16.07-.309.239-.384.148-.07.347-.076.53-.076.148 0 .347.008.513.02v-.026c0-.221-.146-.294-.544-.294a5.78 5.78 0 0 0-.522.025v-.286c.2-.017.424-.028.609-.028.247 0 .502.02.659.132.162.115.193.275.193.485v.838h-.311zm1.217-2.014h-.395v2.014h.395v-2.014z" fill="#819EB0" fill-opacity=".8"/></svg>
